X:2103 
T:Hie ad veih Cass y Lhen gys Bank y Ruy 
C:Tom Kermode, Bradda
O:Isle of Man
S:Traditional 
Z:Clague Collection
B:Kiaull Vannin #104 
M:4/4 
L:1/4
Q:70 
K:G 
A|A B/A/ ^G A|B ^c d c|B3 B|e f g/e/ e/d/|B G A/G/ F|E E E||

